X:1
T: Flanagan's Jig
C:
R:Jig
Q:180
K:D
M:6/8
L:1/16
|:A2d2d2 B2d2d2|A2d2d2 B2d2d2|A2B2c2 d2e2f2|g2e2e2 e6|
A2d2d2 B2d2d2|A2d2d2 B2d2d2|A2B2c2 d2e2f2|e2d2d2 d6|
d2f2a2 a2g2f2|g2e2d2 c2B2A2|d2f2a2 a2g2f2|g2a2b2 a4f2|
g2a2b2 f2a2f2|e2f2d2 c2B2A2|A2B2c2 d2e2f2|e2d2d2 d6:|
